X:41
T:Dick's Farewell
R:Reel
% 32-bar Reels
C:Pete Mac 1989
O:England
Z:Pete Mac Tunebook 2023 (see https://pghardy.net/tunebooks/).
Z:Creative Commons CC0 (Public Domain) licenced.
M:4/4
L:1/8
Q:1/4=210
K:D
FG|"D"A3 d d2 d2|d2 e4 d2|"A7"c3 c c2 c2|c4-c4|G3 c c2 c2|c2 B4 c2|"D"e3 d "G"d2 B2|"D"A4-"A7"A2 e2|
"D"f3 d d2 d2|f2 d6|f3 d d2 d2|"A7"e4-e4|c3 c c2 c2|c2 B4 c2|"D"e3 d "G"d2 d2|"D"d4 "A7"z2 z2||
"D"D2 F2 A2 d2|f6 d2|"A7"c3 B c2 d2|e4-e4|A2 c2 e2 f2|g6 e2|"D"d3 c d2 e2|f4-f4|
"D"D2 F2 A2 d2|f6 d2|"D7"f2 d2 e2 f2|"G"g6 d2|"A"c3 a ^g2 a2|"A7"g2 e2 c2 e2|"D"d4-d4|-d6|]

% This tunebook contains tunes written or extended by Pete Mac, who wishes 
% them to be freely used. Pete says: "I play piano accordion, melodeon and 
% English Concertina. I ran a folk dance and barn dance band for 40 years, in 
% Cambridgeshire and then in Devon where I now live. % I wrote these tunes for 
% use in the bands, and am pleased if others play them. I still lead bands and 
% workshops occasionally, mostly in the Camping and Caravanning Club 'Folk 
% Group' which has been a lifetime involvement, and of which I am a founder 
% member."  
% The tunes (written between 1988 and 2006) are released under a Creative 
% Commons Zero licence - CC0 1.0. To view a copy of this license, visit 
% http://creativecommons.org/publicdomain/zero/1.0. 
% Through this licence, the author has dedicated the work to the public domain 
% by waiving all of his rights worldwide under copyright law, including all 
% related and neighboring rights, to the extent allowed by law.  
% You can copy, modify, distribute and perform these tunes, even for 
% commercial purposes, all without asking permission. 
% Editing, layout and publishing of this Tunebook and its ABC music is by Paul 
% Hardy (paul@paulhardy.net), who releases his assistance work under the same 
% CC0 1.0 licence. See https://pghardy.net/tunebooks/ for downloads of this 
% and more of Paul's tunebooks.
% Original tunebook of 19 October 2023. This version of 8 November 2023.